cssgg/move-right.svg

<svg
  width="24"
  height="24"
  viewBox="0 0 24 24"
  fill="none"
  xmlns="http://www.w3.org/2000/svg"
>
  <path d="M5 17V15H13V17H5Z" fill="currentColor" />
  <path d="M5 9V7H13V9H5Z" fill="currentColor" />
  <path
    d="M5 12.9999V10.9999H14.9999V7.96454L19.071 11.9644L14.9999 15.9644V12.9999H5Z"
    fill="currentColor"
  />
</svg>

<svg viewBox="0 0 24 24" xmlns="http://www.w3.org/2000/svg"><g><path d="M5 17v-2h8v2H5Z"/><path d="M5 9V7h8v2H5Z"/><path d="M5 12.99v-2h9.99V7.95l4.07 3.99 -4.08 4v-2.97h-10Z"/></g></svg>
